X:1
T:Title
%%score ( 1 2 ) { 3 | ( 4 5 ) }
L:1/8
Q:1/4=108
M:4/4
K:G
V:1 treble nm="Grand Piano, Soprano"
V:2 treble 
V:3 bass nm="Choir Pad, Revival, W. Howard Doane"
V:4 bass 
V:5 bass 
V:1
 [DG][FA] [GB]2 AG [CE]2 | z2 G6 | [DG]2 [DA]2 [^CA]2 [DA]2 | z2 A6 | z4 .A2 z2 | .E2 z2 .F2 z2 | %6
w: By~William~Howard~Doane~(1832\-1915) * * * * *||||||
 [DG]2 [DA]2- [DA][DG] [GB]2 | [FA]2 G6 | [GB][Fc] [Gd]2- [Gd][Ge] [Gd]2 | z2 G6 | %10
w: ||||
 [GB][Fc] [Gd]2- [Gd][Ge] [Gd]2 | [GB]2 A2- [GA-]2 [FA]2 | G[FA] [GB]2 AG [CE]2 | .E2 z2 .F2 z2 | %14
w: ||||
 [DG]2 [DA]2- [DA][DG] [GB]2 | [FA]2 G6- | G2 z2 z4 |] %17
w: |||
V:2
 z4 E2 z2 | [CD]2 B,2 E2 D2 | x8 | [DB]2 D2 ^C2 D2 | G[FA] [GB]2 D-[DG] [CE]2 | %5
 C-[CF] [CG]2 ^C-[CE] D2 | x8 | x8 | x8 | [GB]2 D2 E2 D2 | x8 | z2 F2 z4 | z4 D2 z2 | %13
 C-[CF] [B,G]2 ^C-[CE] D2 | x8 | x8 | x8 |] %17
V:3
 B,D D2 G,2 G,2 | F,2 G,2 C2 B,2 | G,2 F,2 E,2 F,2 | G,2 F,2 E,2 F,2 | DD, D2 G,2 G,2 | %5
 A,2 G,2 A,G, F,2 | G,2 F,2- F,G,[K:treble] D2 | C2 B,6 | D2 D2- DC D2 | D2 B,2 C2 B,2 | %10
 D2 D2- DC D2 | E2 D2 ^C2 D2 | D[K:bass]D, D2 G,2 G,2 | A,2 G,2 A,G, F,2 | %14
 G,2 F,2- F,G,[K:treble] D2 | C2 [G,B,]2 C2 B,2- | B,2 z2 z4 |] %17
V:4
 G,D, G,2 B,,2 C,2 | A,,2 G,,6 | B,,2 A,,2 A,,2 A,,2 | G,,2 D,6 | .B,,2 G,2 B,,2 C,2 | %5
 A,,2 E,2 A,,2 D,2 | B,,2 A,,2- A,,B,, D,2 | D,2 [G,,G,]6 | G,A, B,4 B,2 | G,2 G,6 | G,A, B,4 B,2 | %11
 ^C2 z2 A,2 D,2 | .B,,2 G,2 B,,2 C,2 | A,,2 E,2 A,,2 D,2 | B,,2 A,,2- A,,B,, D,2 | %15
 D,2 z2 E,2 D,2- | D,2 z2 z4 |] %17
V:5
 x8 | x8 | x8 | x8 | x8 | x8 | x8 | x8 | x8 | x8 | x8 | x8 | x8 | x8 | x8 | z2 G,,6- | %16
 G,,2 z2 z4 |] %17

